!!!!SEGMENT: pl-wtm--r-1226--002_lodwigowski-edward-stefan-a-z-kadzescie-w-tej-sukmanie.krn
!!!id: 18xx:1918
!!!COM: Łodwigowski, Edward Stefan
!!!OTL: A z kądżeście w tej sukmanie
!!!PDT:
!!!SMS-siglum: PL-Wtm
!!!SMS-shelfmark: R 1226
!!!NIFC-rismID: 1001083974
!!!URL-scan: http://repozytorium.nifc.pl/skany/pl-wtm-nut--r1226-1227
!!!ONB-nifc: UWAGA: No. 50
!!!SMS-variant:
!!!SMS-altvar:
!!!OMD: Allegretto
**kern	**fing	**kern	**fing	**dynam
*part1	*part1	*part1	*part1	*part1
*staff2	*staff2	*staff1	*staff1	*
*>[A,B,B]	*>[A,B,B]	*>[A,B,B]	*>[A,B,B]	*>[A,B,B]
*>A	*>A	*>A	*>A	*>A
*I"Fortepian	*	*	*	*
*clefF4	*	*clefG2	*	*
*k[f#]	*	*k[f#]	*	*
*G:	*	*G:	*	*
*M3/8	*	*M3/8	*	*
*all\right	*	*all\right	*	*
=1	=1	=1	=1	=1
*	*	*	*below	*
!	!	!LO:TX:a:i:t=No 50.	!	!
!	!	!LO:TX:a:i:t=A z Kądżeście w tej sukmanie. P. L. P.	!	!LO:DY:rj
8dL 8B 8G'\	.	(16g/LL	3	f
.	.	16f#/	2	.
8d 8B 8G'\	.	16g/	1	.
.	.	16a/	.	.
8dJ 8B 8G'\	.	16b/	.	.
.	.	16cc/JJ)	.	.
=2	=2	=2	=2	=2
8dL 8B 8G'\	.	16.dd|\LL	.	.
.	.	32dd\JJk	.	.
8c#X 8A#X 8G'\	.	(8ee\L	.	.
8dJ 8B 8G'\	.	8dd\J)	.	.
=3	=3	=3	=3	=3
8dL 8B 8G\	.	(16dd\LL	.	.
.	.	16b\JJ	.	.
8d 8B 8G\	.	8.gg\L	.	.
8eJ 8c 8G\	.	.	.	.
.	.	16ee\Jk	.	.
=4	=4	=4	=4	=4
8dL 8B 8G\	.	16.dd\LL)	.	.
.	.	32dd\JJk	.	.
8c#X 8A#X 8G\	.	(8ee\L	.	.
8dJ 8B 8G\	.	8dd\J)	.	.
!!LO:LB:g=original
=5	=5	=5	=5	=5
8dL 8B 8G\	.	(16dd\LL	.	.
.	.	16b\JJ	.	.
8d 8B 8G\	.	8.gg\L	.	.
8eJ 8c 8G\	.	.	.	.
.	.	16ee\Jk	.	.
=6	=6	=6	=6	=6
8dL 8B 8G\	.	16.dd\LL)	.	.
.	.	32dd\JJk	.	.
8c#X 8A#X 8G\	.	8ee\L	.	.
8dJ 8B 8G\	.	8dd\J	.	.
=7!|:	=7!|:	=7!|:	=7!|:	=7!|:
*>B	*>B	*>B	*>B	*>B
*^	*	*	*	*
4.D/	8D\L	4	(16.cc\LL	1	.
.	.	.	32b\JJk	3	mf
.	8c 8A 8F#\	.	8a\L	2	.
.	8cJ 8A 8F#\	.	8dd\J	5	.
=8	=8	=8	=8	=8	=8
4.D/	8D\L	.	16g/LL	.	.
.	.	.	16a/JJ	.	.
.	8B 8G\	.	8b\L	.	.
.	8BJ 8G\	.	8dd\J)	.	.
=9	=9	=9	=9	=9	=9
4.D/	8D\L	.	(16.cc\LL	.	.
.	.	.	32b\JJk	.	.
.	8c 8A 8F#\	.	8a\L	.	.
.	8cJ 8A 8F#\	.	8dd\J	.	.
=10	=10	=10	=10	=10	=10
4.G/	8G\L	.	16.g/LL	.	.
.	.	.	32a/JJk	.	.
.	8d 8B\	.	8b/L	.	.
.	8dJ 8B\	.	8g/J)	.	.
*v	*v	*	*	*	*
=:|!	=:|!	=:|!	=:|!	=:|!
*-	*-	*-	*-	*-
!!!system-decoration: {p1}
!!!RDF**kern: > = above
!!!RDF**kern: < = below
!!!RDF**kern: | = vertical stroke
!!!ENC: Mateusz Solarz
!!!END: 2021-04-19
!!!ENC: Andrzej Kubiczek
!!!END: 2021-05-01
